src/assets/images/bg-today-large.svg

<svg width="800" height="286" viewBox="0 0 800 286" fill="none" xmlns="http://www.w3.org/2000/svg">
<g filter="url(#filter0_n_118_517)">
<g clip-path="url(#clip0_118_517)">
<rect width="800" height="286" rx="20" fill="url(#paint0_linear_118_517)"/>
<path d="M457.198 330.638C460.023 293.884 492.153 266.377 528.966 269.192C536.961 269.805 544.521 271.8 551.426 274.92C552.157 273.936 552.89 272.954 553.652 271.998C553.672 271.691 553.675 271.39 553.697 271.083C556.52 234.329 588.65 206.822 625.462 209.637C637.303 210.542 648.175 214.487 657.399 220.627C665.973 195.689 690.581 178.67 718.142 180.778C735.643 182.118 750.79 190.901 760.709 203.777C773.114 165.999 810.085 140.089 851.567 143.263C885.574 145.866 913.598 167.336 926.177 196.603C935.638 192.641 946.152 190.784 957.086 191.622C993.898 194.438 1021.45 226.515 1018.63 263.267C1018.57 264.167 1018.47 265.057 1018.36 265.947C1025.43 264.728 1032.76 264.347 1040.24 264.918C1088.98 268.648 1125.47 311.12 1121.74 359.781C1118 408.443 1075.46 444.871 1026.71 441.141C1025.68 441.062 1024.67 440.94 1023.66 440.829C1012.15 457.415 992.393 467.644 970.789 465.993C955.264 464.806 941.618 457.69 931.882 447.053C903.793 470.492 866.892 483.457 827.507 480.441C800.809 478.399 776.373 469.253 755.851 455.047C742.69 473.406 720.522 484.653 696.33 482.802C673.6 481.064 654.412 468.163 643.711 449.903C631.216 459.2 615.441 464.218 598.683 462.935C565.206 460.372 539.393 433.614 537.107 401.146C531.204 402.335 525.046 402.76 518.744 402.28C481.935 399.467 454.38 367.392 457.198 330.638Z" fill="url(#paint1_linear_118_517)"/>
<path opacity="0.2" d="M57.5 45.3011L59.7902 41L59.7239 45.8241L63.8459 43.0313L61.4381 47.2734L66.4482 46.6288L62.25 49.3169L67 50.9683L61.9741 51.4867L65.3758 55.0554L60.6729 53.2852L61.9473 57.954L58.6451 54.3011L57.5 59L56.3549 54.3011L53.0527 57.954L54.3271 53.2852L49.6245 55.0554L53.0263 51.4867L48 50.9683L52.75 49.3169L48.5522 46.6288L53.5623 47.2734L51.1541 43.0313L55.2765 45.8241L55.2098 41L57.5 45.3011Z" fill="white"/>
<path d="M363 37.1692L364.688 34L364.639 37.5546L367.676 35.4967L365.902 38.6225L369.593 38.1475L366.5 40.1282L370 41.3451L366.297 41.727L368.803 44.3566L365.338 43.0523L366.277 46.4924L363.844 43.8008L363 47.2632L362.156 43.8008L359.723 46.4924L360.662 43.0523L357.197 44.3566L359.704 41.727L356 41.3451L359.5 40.1282L356.407 38.1475L360.099 38.6225L358.324 35.4967L361.362 37.5546L361.312 34L363 37.1692Z" fill="#FF820A"/>
<path opacity="0.2" d="M604.5 235.301L606.79 231L606.724 235.824L610.846 233.031L608.438 237.273L613.448 236.629L609.25 239.317L614 240.968L608.974 241.487L612.376 245.055L607.673 243.285L608.947 247.954L605.645 244.301L604.5 249L603.355 244.301L600.053 247.954L601.327 243.285L596.625 245.055L600.026 241.487L595 240.968L599.75 239.317L595.552 236.629L600.562 237.273L598.154 233.031L602.277 235.824L602.21 231L604.5 235.301Z" fill="white"/>
<path d="M319.5 226.301L321.79 222L321.724 226.824L325.846 224.031L323.438 228.273L328.448 227.629L324.25 230.317L329 231.968L323.974 232.487L327.376 236.055L322.673 234.285L323.947 238.954L320.645 235.301L319.5 240L318.355 235.301L315.053 238.954L316.327 234.285L311.625 236.055L315.026 232.487L310 231.968L314.75 230.317L310.552 227.629L315.562 228.273L313.154 224.031L317.277 226.824L317.21 222L319.5 226.301Z" fill="#FF820A"/>
<path d="M149.266 224.173C140.553 226.348 132.459 229.725 125.087 234.052C100.287 194.796 52.2819 173.963 4.74212 185.826C-50.1233 199.517 -85.083 251.938 -78.2982 306.641C-85.027 306.286 -91.923 306.907 -98.8027 308.624C-136.039 317.915 -158.695 355.614 -149.409 392.829C-140.123 430.044 -102.41 452.678 -65.1742 443.386C-56.9224 441.327 -49.3924 437.868 -42.7585 433.33C-23.9729 452.308 4.05179 461.186 31.8509 454.249C49.7012 449.794 64.5603 439.529 74.9509 425.986C90.4861 433.06 108.424 435.141 126.278 430.685C143.411 426.41 157.801 416.787 168.116 404.048C176.46 404.338 184.981 403.511 193.486 401.388C242.451 389.17 272.247 339.591 260.035 290.655C247.823 241.718 198.231 211.955 149.266 224.173Z" fill="url(#paint2_linear_118_517)"/>
</g>
</g>
<defs>
<filter id="filter0_n_118_517" x="0" y="0" width="800" height="286" filterUnits="userSpaceOnUse" color-interpolation-filters="sRGB">
<feFlood flood-opacity="0" result="BackgroundImageFix"/>
<feBlend mode="normal" in="SourceGraphic" in2="BackgroundImageFix" result="shape"/>
<feTurbulence type="fractalNoise" baseFrequency="1 1" stitchTiles="stitch" numOctaves="3" result="noise" seed="6859" />
<feColorMatrix in="noise" type="luminanceToAlpha" result="alphaNoise" />
<feComponentTransfer in="alphaNoise" result="coloredNoise1">
<feFuncA type="discrete" tableValues="0 0 0 0 0 0 0 0 0 0 0 0 0 0 0 0 0 0 0 0 0 1 1 1 1 1 1 1 1 1 0 0 0 0 0 0 0 0 0 0 0 0 0 0 0 0 0 0 0 0 0 0 0 0 0 0 0 0 0 0 0 0 0 0 0 0 0 0 0 0 0 0 0 0 0 0 0 0 0 0 0 0 0 0 0 0 0 0 0 0 0 0 0 0 0 0 0 0 0 0 "/>
</feComponentTransfer>
<feComposite operator="in" in2="shape" in="coloredNoise1" result="noise1Clipped" />
<feFlood flood-color="rgba(255, 255, 255, 0.3)" result="color1Flood" />
<feComposite operator="in" in2="noise1Clipped" in="color1Flood" result="color1" />
<feMerge result="effect1_noise_118_517">
<feMergeNode in="shape" />
<feMergeNode in="color1" />
</feMerge>
</filter>
<linearGradient id="paint0_linear_118_517" x1="-64.8026" y1="-44.6275" x2="817.062" y2="127.756" gradientUnits="userSpaceOnUse">
<stop stop-color="#4658D9"/>
<stop offset="1" stop-color="#2B1B9C"/>
</linearGradient>
<linearGradient id="paint1_linear_118_517" x1="517.5" y1="291" x2="989.631" y2="265.913" gradientUnits="userSpaceOnUse">
<stop stop-color="#332CAD"/>
<stop offset="1" stop-color="#332DAD"/>
</linearGradient>
<linearGradient id="paint2_linear_118_517" x1="265.988" y1="254.622" x2="-10.1093" y2="272.167" gradientUnits="userSpaceOnUse">
<stop stop-color="#3E45C5"/>
<stop offset="1" stop-color="#3E46C7"/>
</linearGradient>
<clipPath id="clip0_118_517">
<rect width="800" height="286" rx="20" fill="white"/>
</clipPath>
</defs>
</svg>

<svg xmlns="http://www.w3.org/2000/svg" width="800" height="286" fill="none" viewBox="0 0 800 286"><g filter="url(#a)"><g clip-path="url(#b)"><rect width="800" height="286" fill="url(#c)" rx="20"/><path fill="url(#d)" d="M457.198 330.638c2.825-36.754 34.955-64.261 71.768-61.446a66.856 66.856 0 0 1 22.46 5.728c.731-.984 1.464-1.966 2.226-2.922.02-.307.023-.608.045-.915 2.823-36.754 34.953-64.261 71.765-61.446a66.611 66.611 0 0 1 31.937 10.99c8.574-24.938 33.182-41.957 60.743-39.849 17.501 1.34 32.648 10.123 42.567 22.999 12.405-37.778 49.376-63.688 90.858-60.514 34.007 2.603 62.031 24.073 74.61 53.34a66.612 66.612 0 0 1 30.909-4.981c36.812 2.816 64.364 34.893 61.544 71.645-.06.9-.16 1.79-.27 2.68a88.82 88.82 0 0 1 21.88-1.029c48.74 3.73 85.23 46.202 81.5 94.863-3.74 48.662-46.28 85.09-95.03 81.36-1.03-.079-2.04-.201-3.05-.312-11.51 16.586-31.267 26.815-52.871 25.164-15.525-1.187-29.171-8.303-38.907-18.94-28.089 23.439-64.99 36.404-104.375 33.388-26.698-2.042-51.134-11.188-71.656-25.394-13.161 18.359-35.329 29.606-59.521 27.755-22.73-1.738-41.918-14.639-52.619-32.899-12.495 9.297-28.27 14.315-45.028 13.032-33.477-2.563-59.29-29.321-61.576-61.789a67.053 67.053 0 0 1-18.363 1.134c-36.809-2.813-64.364-34.888-61.546-71.642Z"/><path fill="#fff" d="M57.5 45.301 59.79 41l-.066 4.824 4.122-2.793-2.408 4.242 5.01-.644-4.198 2.688L67 50.968l-5.026.519 3.402 3.568-4.703-1.77 1.274 4.669-3.302-3.653L57.5 59l-1.145-4.699-3.302 3.653 1.274-4.669-4.703 1.77 3.402-3.568L48 50.968l4.75-1.651-4.198-2.688 5.01.644-2.408-4.242 4.122 2.793L55.21 41l2.29 4.301Z" opacity=".2"/><path fill="#FF820A" d="m363 37.17 1.688-3.17-.049 3.555 3.037-2.058-1.774 3.126 3.691-.475-3.093 1.98 3.5 1.217-3.703.382 2.506 2.63-3.465-1.305.939 3.44-2.433-2.691-.844 3.462-.844-3.462-2.433 2.691.939-3.44-3.465 1.305 2.507-2.63-3.704-.382 3.5-1.217-3.093-1.98 3.692.474-1.775-3.125 3.038 2.058-.05-3.555L363 37.17Z"/><path fill="#fff" d="m604.5 235.301 2.29-4.301-.066 4.824 4.122-2.793-2.408 4.242 5.01-.644-4.198 2.688 4.75 1.651-5.026.519 3.402 3.568-4.703-1.77 1.274 4.669-3.302-3.653L604.5 249l-1.145-4.699-3.302 3.653 1.274-4.669-4.702 1.77 3.401-3.568-5.026-.519 4.75-1.651-4.198-2.688 5.01.644-2.408-4.242 4.123 2.793-.067-4.824 2.29 4.301Z" opacity=".2"/><path fill="#FF820A" d="m319.5 226.301 2.29-4.301-.066 4.824 4.122-2.793-2.408 4.242 5.01-.644-4.198 2.688 4.75 1.651-5.026.519 3.402 3.568-4.703-1.77 1.274 4.669-3.302-3.653L319.5 240l-1.145-4.699-3.302 3.653 1.274-4.669-4.702 1.77 3.401-3.568-5.026-.519 4.75-1.651-4.198-2.688 5.01.644-2.408-4.242 4.123 2.793-.067-4.824 2.29 4.301Z"/><path fill="url(#e)" d="M149.266 224.173a91.442 91.442 0 0 0-24.179 9.879c-24.8-39.256-72.805-60.089-120.345-48.226-54.865 13.691-89.825 66.112-83.04 120.815a69.448 69.448 0 0 0-20.505 1.983c-37.236 9.291-59.892 46.99-50.606 84.205 9.286 37.215 46.999 59.849 84.235 50.557a69.342 69.342 0 0 0 22.416-10.056c18.785 18.978 46.81 27.856 74.609 20.919 17.85-4.455 32.71-14.72 43.1-28.263 15.535 7.074 33.473 9.155 51.327 4.699 17.133-4.275 31.523-13.898 41.838-26.637a91.453 91.453 0 0 0 25.37-2.66c48.965-12.218 78.761-61.797 66.549-110.733-12.212-48.937-61.804-78.7-110.769-66.482Z"/></g></g><defs><linearGradient id="c" x1="-64.803" x2="817.062" y1="-44.627" y2="127.756" gradientUnits="userSpaceOnUse"><stop stop-color="#4658D9"/><stop offset="1" stop-color="#2B1B9C"/></linearGradient><linearGradient id="d" x1="517.5" x2="989.631" y1="291" y2="265.913" gradientUnits="userSpaceOnUse"><stop stop-color="#332CAD"/><stop offset="1" stop-color="#332DAD"/></linearGradient><linearGradient id="e" x1="265.988" x2="-10.109" y1="254.622" y2="272.167" gradientUnits="userSpaceOnUse"><stop stop-color="#3E45C5"/><stop offset="1" stop-color="#3E46C7"/></linearGradient><clipPath id="b"><rect width="800" height="286" fill="#fff" rx="20"/></clipPath><filter id="a" width="800" height="286" x="0" y="0" color-interpolation-filters="sRGB" filterUnits="userSpaceOnUse"><feFlood flood-opacity="0" result="BackgroundImageFix"/><feBlend in="SourceGraphic" in2="BackgroundImageFix" result="shape"/><feTurbulence baseFrequency="1 1" numOctaves="3" result="noise" seed="6859" stitchTiles="stitch" type="fractalNoise"/><feColorMatrix in="noise" result="alphaNoise" type="luminanceToAlpha"/><feComponentTransfer in="alphaNoise" result="coloredNoise1"><feFuncA tableValues="0 0 0 0 0 0 0 0 0 0 0 0 0 0 0 0 0 0 0 0 0 1 1 1 1 1 1 1 1 1 0 0 0 0 0 0 0 0 0 0 0 0 0 0 0 0 0 0 0 0 0 0 0 0 0 0 0 0 0 0 0 0 0 0 0 0 0 0 0 0 0 0 0 0 0 0 0 0 0 0 0 0 0 0 0 0 0 0 0 0 0 0 0 0 0 0 0 0 0 0" type="discrete"/></feComponentTransfer><feComposite in="coloredNoise1" in2="shape" operator="in" result="noise1Clipped"/><feFlood flood-color="rgba(255, 255, 255, 0.3)" result="color1Flood"/><feComposite in="color1Flood" in2="noise1Clipped" operator="in" result="color1"/><feMerge result="effect1_noise_193_1559"><feMergeNode in="shape"/><feMergeNode in="color1"/></feMerge></filter></defs></svg>
